X: 020135
T: Back to Gweedore
S: Dave Abe
Z: B.Black
R: reel
M: 4/4
L: 1/8
K: G
A | BcdB GABG | AD (3FED dcBA | BcdB GABG |\
ADFA G3 :|
A | B3 d gdBd | cBce agfe | fgaf defd |\
ed^ce d2 ef |
gfed (3efg a2 | agfe dcBA | BcdB GABG |\
ADFA G3 :|
